X:1     
T:The Miller of Dee  
B:Sabine Baring Gould, 1895, Old English Songs from English Minstrelsie, 1895
F: http://www.folkinfo.org/songs
M:6/8     %Meter
L:1/8     %
K:Bb
D |G2 G ^F2 D  |B2 B A2 c |B2 G A2 ^F | G3-G2
w:There was a jol-ly mil-ler once Liv'd on the riv-er Dee,_
 D |G2 G ^F2 D |B2 B A2 c |(BA) G A2 ^F |G3-G2
w:He work'd and sang from morn till night, No lark_ more blithe than he._
(B/c/) |d2 d d2 B |c2 c c2 A |B2 G c2 B | (B3A2)
w:And_ this the bur-den of his song For-ev-er us'd to be,_
 D |G2 G ^F3/2 =E/ D |B2 B HA2 c |B3/2 A/ G A2 ^F | G3-G |]
w: "I care for no-bod-y, no not I, If no-bod-y cares for me.*_

